;FLAVOR:Marlin
;TIME:1558
;Filament used: 0.527852m
;Layer height: 0.28
;MINX:100.166
;MINY:99.073
;MINZ:0.28
;MAXX:135.912
;MAXY:136.502
;MAXZ:34.44
;Generated with Cura_SteamEngine 4.8.0
M140 S50
M105
M190 S50
M104 S200
M105
M109 S200
M82 ;absolute extrusion mode
; Ender 3 Custom Start G-code
G92 E0 ; Reset Extruder
G28 ; Home all axes
G1 Z2.0 F3000 ; Move Z Axis up little to prevent scratching of Heat Bed
G1 X0.1 Y20 Z0.3 F5000.0 ; Move to start position
G1 X0.1 Y200.0 Z0.3 F1500.0 E15 ; Draw the first line
G1 X0.4 Y200.0 Z0.3 F5000.0 ; Move to side a little
G1 X0.4 Y20 Z0.3 F1500.0 E30 ; Draw the second line
G92 E0 ; Reset Extruder
G1 Z2.0 F3000 ; Move Z Axis up little to prevent scratching of Heat Bed
G1 X5 Y20 Z0.3 F5000.0 ; Move over to prevent blob squish
G92 E0
G92 E0
G1 F2700 E-5
;LAYER_COUNT:123
;LAYER:0
M107
G0 F6000 X103.93 Y113.391 Z0.28
;TYPE:SKIRT
G1 F2700 E0
G1 F1200 X104.419 Y112.944 E0.03085
G1 X105.179 Y112.293 E0.07745
G1 X105.832 Y111.749 E0.11702
G1 X107.747 Y110.056 E0.23604
G1 X109.569 Y108.354 E0.35214
G1 X111.361 Y106.58 E0.46956
G1 X113.097 Y104.762 E0.58661
G1 X114.622 Y103.08 E0.69233
G1 X115.281 Y102.412 E0.73602
G1 X115.717 Y102.028 E0.76307
G1 X115.912 Y101.865 E0.77491
G1 X116.657 Y101.295 E0.81859
G1 X117.592 Y100.707 E0.87002
G1 X117.817 Y100.581 E0.88202
G1 X118.654 Y100.158 E0.92569
G1 X119.742 Y99.734 E0.98007
G1 X119.96 Y99.662 E0.99076
G1 X120.863 Y99.406 E1.03446
G1 X121.825 Y99.222 E1.08007
G1 X122.086 Y99.184 E1.09235
G1 X123.019 Y99.088 E1.13602
G1 X123.957 Y99.073 E1.17971
G1 X124.933 Y99.142 E1.22527
G1 X125.236 Y99.177 E1.23947
G1 X126.162 Y99.324 E1.28313
G1 X127.073 Y99.55 E1.32683
G1 X127.733 Y99.766 E1.35917
G1 X128.206 Y99.949 E1.38279
G1 X128.41 Y100.033 E1.39306
G1 X129.261 Y100.426 E1.43671
G1 X130.344 Y101.065 E1.49526
G1 X130.556 Y101.207 E1.50714
G1 X131.312 Y101.761 E1.55078
G1 X132.063 Y102.422 E1.59737
G1 X132.278 Y102.629 E1.61127
G1 X132.926 Y103.307 E1.65494
G1 X133.768 Y104.402 E1.71926
G1 X133.911 Y104.614 E1.73116
G1 X134.402 Y105.413 E1.77483
G1 X134.983 Y106.625 E1.83742
G1 X135.035 Y106.753 E1.84385
G1 X135.39 Y107.766 E1.89383
G1 X135.457 Y107.992 E1.90481
G1 X135.685 Y108.902 E1.94849
G1 X135.835 Y109.828 E1.99217
G1 X135.911 Y111.082 E2.05067
G1 X135.912 Y111.377 E2.06441
G1 X135.843 Y112.643 E2.12344
G1 X135.805 Y112.981 E2.13928
G1 X135.774 Y113.233 E2.1511
G1 X135.647 Y114.171 E2.19518
G1 X135.528 Y115.286 E2.24739
G1 X135.365 Y116.679 E2.3127
G1 X135.217 Y117.605 E2.35637
G1 X134.99 Y118.515 E2.40004
G1 X134.562 Y119.708 E2.45906
G1 X134.462 Y119.943 E2.47095
G1 X134.058 Y120.79 E2.51465
G1 X133.493 Y121.738 E2.56603
G1 X133.451 Y121.801 E2.56956
G1 X132.946 Y122.497 E2.6096
G1 X132.821 Y122.656 E2.61902
G1 X132.205 Y123.373 E2.66303
G1 X131.375 Y124.26 E2.7196
G1 X129.599 Y126.213 E2.84252
G1 X127.945 Y128.139 E2.96073
G1 X126.36 Y130.094 E3.07792
G1 X125.045 Y131.805 E3.17841
G1 X124.443 Y132.524 E3.22207
G1 X123.794 Y133.176 E3.26491
G1 X123.566 Y133.387 E3.27937
G1 X122.852 Y133.994 E3.32301
G1 X122.088 Y134.538 E3.36668
G1 X121.014 Y135.153 E3.42431
G1 X120.764 Y135.278 E3.43733
G1 X119.908 Y135.661 E3.48099
G1 X119.023 Y135.97 E3.52464
G1 X118.286 Y136.165 E3.56014
G1 X118.018 Y136.226 E3.57294
G1 X117.096 Y136.395 E3.61659
G1 X115.859 Y136.496 E3.67438
G1 X115.625 Y136.502 E3.68528
G1 X114.687 Y136.486 E3.72896
G1 X113.754 Y136.391 E3.77263
G1 X113.235 Y136.302 E3.79715
G1 X112.984 Y136.253 E3.80906
G1 X112.072 Y136.034 E3.85273
G1 X111.182 Y135.739 E3.89639
G1 X110.321 Y135.368 E3.94005
G1 X109.479 Y134.917 E3.98452
G1 X109.147 Y134.72 E4.0025
G1 X108.558 Y134.345 E4.03501
G1 X108.338 Y134.195 E4.04741
G1 X106.538 Y133.015 E4.14763
G1 X105.41 Y132.255 E4.21097
G1 X104.655 Y131.698 E4.25465
G1 X104.108 Y131.227 E4.28827
G1 X103.958 Y131.089 E4.29776
G1 X103.296 Y130.425 E4.34142
G1 X102.692 Y129.708 E4.38507
G1 X102.38 Y129.282 E4.40966
G1 X102.256 Y129.104 E4.41976
G1 X101.753 Y128.312 E4.46345
G1 X101.32 Y127.48 E4.50712
G1 X100.836 Y126.263 E4.56811
G1 X100.737 Y125.963 E4.58282
G1 X100.481 Y125.061 E4.62648
G1 X100.244 Y123.677 E4.69186
G1 X100.225 Y123.498 E4.70024
G1 X100.166 Y122.562 E4.74391
G1 X100.189 Y121.603 E4.78858
G1 X100.211 Y121.274 E4.80393
G1 X100.313 Y120.342 E4.84759
G1 X100.521 Y119.313 E4.89647
G1 X100.591 Y119.036 E4.90978
G1 X100.86 Y118.137 E4.95347
G1 X101.204 Y117.265 E4.99712
G1 X101.542 Y116.57 E5.03311
G1 X101.627 Y116.41 E5.04155
G1 X102.102 Y115.602 E5.08519
G1 X102.644 Y114.836 E5.12888
G1 X103.039 Y114.354 E5.1579
G1 X103.285 Y114.071 E5.17536
G1 X103.93 Y113.391 E5.219
G0 F6000 X104.221 Y113.666
G1 F1200 X104.679 Y113.248 E5.24788
G1 X105.435 Y112.6 E5.29424
G1 X106.107 Y112.039 E5.335
G1 X108.001 Y110.366 E5.45267
G1 X109.84 Y108.648 E5.56986
G1 X111.648 Y106.858 E5.68833
G1 X113.401 Y105.023 E5.8065
G1 X114.919 Y103.348 E5.91176
G1 X115.566 Y102.694 E5.95459
G1 X115.974 Y102.335 E5.9799
G1 X116.169 Y102.172 E5.99173
G1 X116.9 Y101.613 E6.03458
G1 X117.788 Y101.056 E6.08339
G1 X118.013 Y100.93 E6.0954
G1 X118.835 Y100.516 E6.13826
G1 X119.868 Y100.114 E6.18987
G1 X120.086 Y100.042 E6.20056
G1 X120.972 Y99.791 E6.24344
G1 X121.883 Y99.618 E6.28662
G1 X122.144 Y99.58 E6.2989
G1 X123.06 Y99.487 E6.34177
G1 X123.98 Y99.474 E6.38462
G1 X124.887 Y99.539 E6.42696
G1 X125.19 Y99.574 E6.44116
G1 X126.099 Y99.719 E6.48402
G1 X126.993 Y99.943 E6.52694
G1 X127.64 Y100.158 E6.55869
G1 X128.054 Y100.318 E6.57935
G1 X128.258 Y100.402 E6.58963
G1 X129.093 Y100.79 E6.6325
G1 X130.121 Y101.397 E6.68809
G1 X130.333 Y101.539 E6.69997
G1 X131.075 Y102.084 E6.74284
G1 X131.786 Y102.71 E6.78695
G1 X132.001 Y102.917 E6.80085
G1 X132.636 Y103.584 E6.84373
G1 X133.437 Y104.625 E6.90489
G1 X133.58 Y104.837 E6.9168
G1 X134.061 Y105.622 E6.95967
G1 X134.613 Y106.775 E7.01919
G1 X134.665 Y106.903 E7.02563
G1 X135.007 Y107.88 E7.07383
G1 X135.074 Y108.106 E7.0848
G1 X135.297 Y108.999 E7.12766
G1 X135.442 Y109.909 E7.17057
G1 X135.511 Y111.083 E7.22533
G1 X135.512 Y111.378 E7.23907
G1 X135.446 Y112.598 E7.29596
G1 X135.408 Y112.936 E7.3118
G1 X135.377 Y113.179 E7.3232
G1 X135.251 Y114.108 E7.36686
G1 X135.131 Y115.24 E7.41986
G1 X134.968 Y116.633 E7.48517
G1 X134.822 Y117.542 E7.52804
G1 X134.597 Y118.435 E7.57092
G1 X134.194 Y119.551 E7.62617
G1 X134.094 Y119.786 E7.63806
G1 X133.697 Y120.617 E7.68095
G1 X133.16 Y121.516 E7.72971
G1 X133.118 Y121.579 E7.73323
G1 X132.631 Y122.25 E7.77184
G1 X132.506 Y122.409 E7.78126
G1 X131.913 Y123.1 E7.82366
G1 X131.071 Y124 E7.88104
G1 X129.301 Y125.947 E8.00357
G1 X127.648 Y127.872 E8.12172
G1 X126.048 Y129.844 E8.23996
G1 X124.728 Y131.562 E8.34085
G1 X124.136 Y132.267 E8.38371
G1 X123.523 Y132.883 E8.42418
G1 X123.295 Y133.094 E8.43865
G1 X122.592 Y133.689 E8.48153
G1 X121.841 Y134.221 E8.52439
G1 X120.835 Y134.795 E8.57832
G1 X120.585 Y134.92 E8.59133
G1 X119.745 Y135.296 E8.63419
G1 X118.875 Y135.597 E8.67705
G1 X118.198 Y135.775 E8.70965
G1 X117.93 Y135.836 E8.72245
G1 X117.024 Y136.001 E8.76533
G1 X115.849 Y136.097 E8.82022
G1 X115.615 Y136.103 E8.83112
G1 X114.694 Y136.086 E8.87402
G1 X113.779 Y135.99 E8.91686
G1 X113.312 Y135.91 E8.93892
G1 X113.061 Y135.861 E8.95083
G1 X112.166 Y135.645 E8.9937
G1 X111.293 Y135.353 E9.03656
G1 X110.449 Y134.986 E9.07942
G1 X109.683 Y134.573 E9.11994
G1 X109.351 Y134.376 E9.13792
G1 X108.784 Y134.015 E9.16922
G1 X108.562 Y133.863 E9.18174
G1 X106.761 Y132.683 E9.282
G1 X105.633 Y131.923 E9.34534
G1 X104.893 Y131.376 E9.38819
G1 X104.379 Y130.933 E9.41978
G1 X104.229 Y130.795 E9.42927
G1 X103.579 Y130.143 E9.47214
G1 X102.989 Y129.437 E9.51499
G1 X102.708 Y129.053 E9.53714
G1 X102.584 Y128.875 E9.54724
G1 X102.091 Y128.097 E9.59013
G1 X101.668 Y127.28 E9.63297
G1 X101.216 Y126.138 E9.69016
G1 X101.117 Y125.838 E9.70487
G1 X100.867 Y124.952 E9.74774
G1 X100.642 Y123.635 E9.80995
G1 X100.623 Y123.456 E9.81833
G1 X100.566 Y122.537 E9.86121
G1 X100.588 Y121.63 E9.90345
G1 X100.61 Y121.301 E9.91881
G1 X100.711 Y120.386 E9.96167
G1 X100.909 Y119.411 E10.008
G1 X100.979 Y119.134 E10.0213
G1 X101.243 Y118.252 E10.06417
G1 X101.583 Y117.396 E10.10706
G1 X101.895 Y116.758 E10.14013
G1 X101.98 Y116.598 E10.14857
G1 X102.447 Y115.804 E10.19146
G1 X102.981 Y115.054 E10.23433
G1 X103.341 Y114.617 E10.2607
G1 X103.587 Y114.334 E10.27816
G1 X104.221 Y113.666 E10.32104
G0 F6000 X104.511 Y113.942
G1 F1200 X104.94 Y113.551 E10.34807
G1 X105.691 Y112.907 E10.39413
G1 X106.382 Y112.33 E10.43605
G1 X108.256 Y110.675 E10.55247
G1 X110.148 Y108.908 E10.67302
G1 X111.901 Y107.172 E10.7879
G1 X113.703 Y105.285 E10.90939
G1 X115.215 Y103.617 E11.01422
G1 X115.851 Y102.976 E11.05627
G1 X116.23 Y102.642 E11.07979
G1 X116.425 Y102.479 E11.09163
G1 X117.143 Y101.931 E11.13369
G1 X117.983 Y101.405 E11.17983
G1 X118.208 Y101.279 E11.19184
G1 X119.015 Y100.873 E11.23391
G1 X119.993 Y100.494 E11.28275
G1 X120.211 Y100.422 E11.29344
G1 X121.08 Y100.177 E11.33548
G1 X121.94 Y100.013 E11.37625
G1 X122.201 Y99.975 E11.38853
G1 X123.1 Y99.885 E11.4306
G1 X124.003 Y99.874 E11.47265
G1 X124.841 Y99.936 E11.51178
G1 X125.144 Y99.971 E11.52598
G1 X126.036 Y100.115 E11.56805
G1 X126.912 Y100.336 E11.61012
G1 X127.504 Y100.534 E11.63919
G1 X127.902 Y100.688 E11.65906
G1 X128.106 Y100.772 E11.66933
G1 X128.925 Y101.153 E11.71139
G1 X129.898 Y101.729 E11.76404
G1 X130.11 Y101.871 E11.77592
G1 X130.838 Y102.407 E11.81802
G1 X131.508 Y102.998 E11.85962
G1 X131.723 Y103.205 E11.87352
G1 X132.346 Y103.86 E11.91561
G1 X133.105 Y104.849 E11.97366
G1 X133.248 Y105.061 E11.98557
G1 X133.719 Y105.831 E12.0276
G1 X134.242 Y106.926 E12.0841
G1 X134.294 Y107.054 E12.09054
G1 X134.623 Y107.994 E12.13691
G1 X134.69 Y108.22 E12.14789
G1 X134.908 Y109.096 E12.18992
G1 X135.048 Y109.988 E12.23197
G1 X135.111 Y111.084 E12.28308
G1 X135.112 Y111.379 E12.29682
G1 X135.048 Y112.554 E12.35161
G1 X135.01 Y112.892 E12.36745
G1 X134.981 Y113.125 E12.37839
G1 X134.851 Y114.078 E12.42317
G1 X134.734 Y115.193 E12.47538
G1 X134.571 Y116.586 E12.54068
G1 X134.426 Y117.478 E12.58276
G1 X134.203 Y118.353 E12.62481
G1 X133.826 Y119.395 E12.67641
G1 X133.726 Y119.63 E12.6883
G1 X133.336 Y120.444 E12.73033
G1 X132.827 Y121.294 E12.77646
G1 X132.785 Y121.357 E12.77999
G1 X132.317 Y122.003 E12.81713
G1 X132.192 Y122.162 E12.82655
G1 X131.621 Y122.827 E12.86736
G1 X130.766 Y123.741 E12.92564
G1 X128.985 Y125.7 E13.04892
G1 X127.349 Y127.604 E13.16581
G1 X125.74 Y129.588 E13.28476
G1 X124.411 Y131.318 E13.38634
G1 X123.829 Y132.009 E13.42841
G1 X123.251 Y132.589 E13.46654
G1 X123.023 Y132.8 E13.481
G1 X122.334 Y133.384 E13.52306
G1 X121.595 Y133.904 E13.56514
G1 X120.657 Y134.437 E13.61537
G1 X120.407 Y134.562 E13.62839
G1 X119.582 Y134.93 E13.67045
G1 X118.728 Y135.223 E13.71249
G1 X118.109 Y135.385 E13.74229
G1 X117.841 Y135.446 E13.75509
G1 X116.952 Y135.607 E13.79715
G1 X115.838 Y135.697 E13.8492
G1 X115.604 Y135.703 E13.8601
G1 X114.702 Y135.686 E13.9021
G1 X113.389 Y135.517 E13.96375
G1 X113.138 Y135.468 E13.97565
G1 X112.26 Y135.256 E14.01771
G1 X111.404 Y134.967 E14.05978
G1 X110.577 Y134.604 E14.10184
G1 X109.887 Y134.229 E14.13841
G1 X109.555 Y134.032 E14.15638
G1 X109.01 Y133.684 E14.18649
G1 X108.809 Y133.547 E14.19782
G1 X106.985 Y132.351 E14.29938
G1 X105.857 Y131.591 E14.36271
G1 X105.131 Y131.054 E14.40476
G1 X104.65 Y130.638 E14.43437
G1 X104.5 Y130.5 E14.44387
G1 X103.863 Y129.86 E14.48591
G1 X103.037 Y128.824 E14.54761
G1 X102.913 Y128.646 E14.55771
G1 X102.43 Y127.883 E14.59976
G1 X102.016 Y127.08 E14.64183
G1 X101.596 Y126.012 E14.69526
G1 X101.497 Y125.712 E14.70997
G1 X101.252 Y124.843 E14.75202
G1 X101.04 Y123.593 E14.81105
G1 X101.021 Y123.414 E14.81943
G1 X100.966 Y122.512 E14.86151
G1 X100.987 Y121.656 E14.90138
G1 X101.009 Y121.327 E14.91674
G1 X101.109 Y120.43 E14.95877
G1 X101.297 Y119.509 E15.00254
G1 X101.367 Y119.232 E15.01584
G1 X101.627 Y118.367 E15.0579
G1 X101.962 Y117.528 E15.09996
G1 X102.248 Y116.946 E15.13016
G1 X102.333 Y116.786 E15.1386
G1 X102.792 Y116.008 E15.18066
G1 X103.317 Y115.273 E15.22272
G1 X103.643 Y114.879 E15.24653
G1 X103.889 Y114.596 E15.26399
G1 X104.511 Y113.942 E15.30602
G1 F2700 E10.30602
;MESH:mandoblasterlow.stl
G0 F6000 X111.028 Y120.895
G0 X111.834 Y121.621
G0 X111.941 Y122.367
G0 X115.363 Y124.91
;TYPE:WALL-INNER
G1 F2700 E15.30602
G1 F1200 X115.182 Y124.83 E15.31523
G1 X115.054 Y124.704 E15.32359
G1 X114.883 Y124.511 E15.3356
G1 X114.678 Y124.301 E15.34927
G1 X114.415 Y124.071 E15.36553
G1 X114.175 Y123.885 E15.37967
G1 X113.918 Y123.715 E15.39402
G1 X113.678 Y123.574 E15.40698
G1 X113.421 Y123.43 E15.4207
G1 X113.153 Y123.293 E15.43472
G1 X112.878 Y123.161 E15.44892
G1 X112.462 Y122.966 E15.47031
G1 X112.221 Y122.847 E15.48283
G1 X111.877 Y122.635 E15.50164
G1 X111.769 Y122.408 E15.51335
G1 X111.767 Y122.108 E15.52732
G1 X111.87 Y121.85 E15.54025
G1 X112.101 Y121.657 E15.55427
G1 X112.225 Y121.609 E15.56046
G1 X112.525 Y121.598 E15.57444
G1 X112.826 Y121.726 E15.58967
G1 X113.172 Y121.975 E15.60952
G1 X113.475 Y122.294 E15.63001
G1 X113.666 Y122.537 E15.6444
G1 X113.886 Y122.768 E15.65925
G1 X114.186 Y123.013 E15.67729
G1 X114.457 Y123.188 E15.69231
G1 X114.751 Y123.351 E15.70796
G1 X115.086 Y123.492 E15.72489
G1 X115.368 Y123.596 E15.73888
G1 X115.713 Y123.782 E15.75713
G1 X115.977 Y124.054 E15.77478
G1 X116.057 Y124.191 E15.78217
G1 X116.008 Y124.488 E15.79619
G1 X115.952 Y124.613 E15.80257
G1 X115.753 Y124.826 E15.81614
G1 X115.655 Y124.874 E15.82122
G1 X115.363 Y124.91 E15.83492
G0 F6000 X115.133 Y125.271
;TYPE:WALL-OUTER
G1 F1200 X114.932 Y125.146 E15.84594
G1 X114.773 Y124.989 E15.85635
G1 X114.59 Y124.784 E15.86914
G1 X114.403 Y124.592 E15.88162
G1 X114.16 Y124.38 E15.89664
G1 X113.942 Y124.21 E15.90951
G1 X113.706 Y124.055 E15.92266
G1 X113.479 Y123.921 E15.93493
G1 X113.232 Y123.783 E15.94811
G1 X112.975 Y123.651 E15.96156
G1 X112.707 Y123.522 E15.97541
G1 X112.293 Y123.329 E15.99668
G1 X112.043 Y123.205 E16.00967
G1 X111.811 Y123.082 E16.0219
G1 X111.588 Y122.918 E16.03479
G1 X111.453 Y122.728 E16.04564
G1 X111.369 Y122.473 E16.05815
G1 X111.367 Y122.031 E16.07873
G1 X111.524 Y121.636 E16.09852
G1 X111.687 Y121.455 E16.10986
G1 X111.91 Y121.303 E16.12243
G1 X112.144 Y121.211 E16.13414
G1 X112.58 Y121.195 E16.15445
G1 X112.792 Y121.263 E16.16482
G1 X113.028 Y121.38 E16.17708
G1 X113.25 Y121.525 E16.18943
G1 X113.442 Y121.68 E16.20092
G1 X113.625 Y121.853 E16.21265
G1 X113.78 Y122.035 E16.22378
G1 X113.969 Y122.275 E16.238
G1 X114.158 Y122.474 E16.25078
G1 X114.422 Y122.689 E16.26664
G1 X114.663 Y122.845 E16.28
G1 X114.926 Y122.991 E16.29401
G1 X115.233 Y123.12 E16.30952
G1 X115.517 Y123.225 E16.32362
G1 X115.739 Y123.327 E16.33499
G1 X115.955 Y123.462 E16.34685
G1 X116.118 Y123.607 E16.35701
G1 X116.29 Y123.803 E16.36915
G1 X116.416 Y123.986 E16.3795
G1 X116.466 Y124.172 E16.38847
G1 X116.395 Y124.605 E16.4089
G1 X116.289 Y124.837 E16.42078
G1 X115.995 Y125.152 E16.44084
G1 X115.771 Y125.263 E16.45248
G1 X115.345 Y125.315 E16.47247
G1 X115.133 Y125.271 E16.48255
G0 F6000 X115.296 Y124.863
G0 X115.405 Y124.502
;TYPE:SKIN
G1 F1200 X115.337 Y124.435 E16.48699
G1 X115.168 Y124.245 E16.49883
G1 X114.947 Y124.018 E16.51358
G1 X114.663 Y123.77 E16.53114
G1 X114.58 Y123.702 E16.53614
G1 X114.943 Y123.855 E16.55448
G1 X115.21 Y123.954 E16.56774
G1 X115.476 Y124.097 E16.5818
G1 X115.648 Y124.274 E16.5933
G1 X115.622 Y124.393 E16.59897
G1 X115.526 Y124.497 E16.60556
G1 X115.405 Y124.502 E16.6112
G0 F6000 X115.208 Y124.701
G0 X113.641 Y123.426
G0 X113.777 Y123.183
G1 F1200 X113.605 Y123.086 E16.62039
G1 X113.327 Y122.944 E16.63493
G1 X113.045 Y122.808 E16.64951
G1 X112.627 Y122.613 E16.67098
G1 X112.416 Y122.509 E16.68194
G1 X112.18 Y122.363 E16.69486
G1 X112.157 Y122.181 E16.7034
G1 X112.196 Y122.086 E16.70818
G1 X112.304 Y121.997 E16.7147
G1 X112.453 Y121.992 E16.72164
G1 X112.634 Y122.068 E16.73078
G1 X112.912 Y122.267 E16.7467
G1 X113.181 Y122.552 E16.76495
G1 X113.371 Y122.793 E16.77924
G1 X113.621 Y123.055 E16.7961
G1 X113.777 Y123.183 E16.8055
G0 F6000 X113.641 Y123.426
G0 X112.011 Y122.515
G0 X111.938 Y122.141
G0 X112.26 Y121.779
